!!!!SEGMENT: pl-sa--446-a-viii-86--001-002_anonim--deus-amo-te.krn
!!!cenid: 17xx:702
!!!COM: Anonim
!!!COM-rismID: pe30004985
!!!CDT:
!!!CNT:
!!!OTL: Deus amo te
!!!OMV: 002
!!!PDT:
!!!AGN: Sacred
!!!SMS-siglum: PL-SA
!!!SMS-shelfmark: 446/A VIII 86
!!!SMS-shelfwork: 001-002 W
!!!SMS-variant:
!!!SMS-altvar:
!!!NIFC-rismSourceID: 1001041305
!!!NIFC-islandoraID:
!!!URL-pdf-islandora:
!!!URL-scan: https://bc.bdsandomierz.pl/dlibra/publication/1740/edition/1708/content @EN{Scan in the Sandomierz Diocese Digital Library} @PL{Skany w portalu Cyfrowa Biblioteka Diecezjalna w Sandomierzu}
!!!ONB-nifc:
!!!AIN: 1 oboe 1 organ 2 violn 1 vox
!!!key:
**kern	**fba	**kern	**kern	**kern	**text	**kern
*part5	*	*part4	*part3	*part2	*part2	*part1
*	*	*group1	*group1	*	*	*
*staff5	*	*staff4	*staff3	*staff2	*staff2	*staff1
*Iorgan	*	*Ivioln	*Ivioln	*Ivox	*	*Ioboe
*I"Pro Organo	*	*I"Violino Secundo	*I"Violino Primo	*I"Canto Solo	*	*I"Hautbois Solo
*I'org	*	*I'vl II	*I'vl I	*I'C.	*	*I'ob
*clefF4	*	*clefG2	*clefG2	*clefC1	*	*clefG2
*	*	*	*	*	*	*ITrd-6c-10
*k[b-]	*	*k[b-]	*k[b-]	*k[b-]	*	*k[b-]
*F:	*	*F:	*F:	*F:	*	*F:
*M4/4	*	*M4/4	*M4/4	*M4/4	*	*M4/4
*met(C.)	*	*met(c)	*met(C.)	*met(C.)	*	*met(C.)
*>[A,B,A]	*	*>[A,B,A]	*>[A,B,A]	*>[A,B,A]	*	*>[A,B,A]
*>A	*	*>A	*>A	*>A	*	*>A
!LO:TX:a:B:t=3	!	!	!LO:TX:b:B:t=O Deus amote	!LO:TX:a:B:t=adagio	!	!
!LO:TX:b:B:t=O Deuſ ego amote	!	!	!LO:TX:a:B:t=3 Concert	!LO:TX:a:B:t=3.	!	!LO:TX:b:B:t=Concerto 3tio
!LO:TX:a:t=P:problem=bemole B- b- jeden nad drugim	!	!	!	!	!	!LO:TX:a:t=P:problem=krzyżyki f# ff# jeden nad drugim
8r	.	8ryy	8r	8r	.	16ccc\LL
.	.	.	.	.	.	32ddd\L
.	.	.	.	.	.	32eee\JJJ
=1	=1	=1	=1	=1	=1	=1
!	!	!	!LO:TX:a:t=P:problem=mixed beam	!	!	!
!	!	!	!LO:TX:a:B:t=Violino ſolo	!	!	!
8F\L	.	1ryy	8a/L	00r	.	8fff\L
8C\	.	.	8g/	.	.	8eee\J
8E\	6	.	8g/	.	.	8eee\L
8C\J	.	.	8ee\J	.	.	16ggg\L
.	.	.	.	.	.	16eee\JJ
4F\	.	.	8ff\L	.	.	4fff\
.	.	.	8cc\	.	.	.
4r	.	.	8a\	.	.	4r
.	.	.	8f\J	.	.	.
=2	=2	=2	=2	=2	=2	=2
8F\L	.	1ryy	8ff\L	.	.	8aaa\L
8C\	.	.	8ee\J	.	.	8ggg\
8C\	.	.	8ee\L	.	.	8ggg\
8C\J	.	.	16gg\L	.	.	8eee\J
.	.	.	16ff\JJ	.	.	.
4F\	.	.	4ff\	.	.	8ggg\L
.	.	.	.	.	.	8ccc\J
4r	.	.	4r	.	.	8aa\L
.	.	.	.	.	.	8ff\J
=3	=3	=3	=3	=3	=3	=3
8r	.	1ryy	16b-/LL	.	.	16ddd\LL
.	.	.	16a/	.	.	16ccc\
8B-\L	.	.	16b-/	.	.	16ddd\
.	.	.	16cc/JJ	.	.	16eee--X\JJ
8d\	.	.	16b-/LL	.	.	16ddd\LL
.	.	.	16a/	.	.	16ccc\
8B-\J	.	.	16b-/	.	.	16ddd\
.	.	.	16dd/JJ	.	.	16bbb-\JJ
8r	.	.	16a/LL	.	.	16ccc\LL
.	.	.	16g/	.	.	16bb-\
8F\L	.	.	16a/	.	.	16ccc\
.	.	.	16b-/JJ	.	.	16ddd\JJ
8A\	.	.	16a/LL	.	.	16ccc\LL
.	.	.	16g/	.	.	16bb-\
8F\J	.	.	16a/	.	.	16ccc\
.	.	.	16cc/JJ	.	.	16aaa\JJ
=4	=4	=4	=4	=4	=4	=4
8G\L	.	1ryy	8b-\L	.	.	8ggg\L
8F\	.	.	8dd\	.	.	8ggg\
8E\	.	.	8cc\	.	.	8ggg\
8D\J	.	.	8ee\J	.	.	8ggg\J
!LO:TX:a:t=P:problem=mixed beam	!	!	!LO:TX:a:t=P:problem=mixed beam	!	!	!
8F\L	.	.	8ff\L	.	.	8aaa\L
8B-\	.	.	8ee\	.	.	16ggg\L
.	.	.	.	.	.	16fff\JJ
!	!	!	!	!	!	!LO:LB:g=original
8c\	.	.	8.g/	.	.	8.eee\L
8C/J	.	.	.	.	.	.
.	.	.	16g/Jk	.	.	16ddd\Jk
=5	=5	=5	=5	=5	=5	=5
8F\L	.	1ryy	4a/	0r	.	4fff\
8G\	.	.	.	.	.	.
8A\	.	.	8r	.	.	8r
8F\J	.	.	8cc\	.	.	8ccc\
!	!	!	!LO:LB:g=original	!	!	!
4A\	.	.	16dd\LL	.	.	16bb-\LL
.	.	.	16cc\	.	.	16aa\
.	.	.	16dd\	.	.	16bb-\
.	.	.	16ee-X\JJ	.	.	16ccc\JJ
4r	.	.	16dd\LL	.	.	16bb-\LL
.	.	.	16cc\	.	.	16aa\
.	.	.	16dd\	.	.	16aa\
.	.	.	16bb-\JJ	.	.	16ddd\JJ
=6	=6	=6	=6	=6	=6	=6
4A\	.	1ryy	16cc\LL	.	.	16aa/LL
.	.	.	16b-\	.	.	16gg/
.	.	.	16cc\	.	.	16aa/
.	.	.	16dd\JJ	.	.	16bb-/JJ
4r	.	.	16cc\LL	.	.	16aa/LL
.	.	.	16b-\	.	.	16gg/
.	.	.	16cc\	.	.	16aa/
.	.	.	16aa\JJ	.	.	16ccc/JJ
!LO:LB:g=original	!	!	!	!	!	!
!LO:TX:a:t=P:problem=mixed beam	!	!	!	!	!	!
8F\L	.	.	4a/	.	.	8fff\L
8BB-/	.	.	.	.	.	16ggg\L
.	.	.	.	.	.	16aaa\JJ
8C/	.	.	8.g/L	.	.	8.eee\L
8CC/J	.	.	.	.	.	.
.	.	.	16g/Jk	.	.	16ddd\Jk
=7	=7	=7	=7	=7-	=7	=7
8F\L	.	1ryy	4a/	4r	.	4fff\
8G\	.	.	.	.	.	.
8A\	.	.	4r	8r	.	4r
8F\J	.	.	.	8ff\	O	.
8C/L	.	.	2rg	8ee\	De-	2rg
8D/	.	.	.	8ee\	-us	.
8E/	.	.	.	8ee\	a-	.
8C/J	.	.	.	16gg\LL	-mo-	.
.	.	.	.	16ee\JJ	.	.
=8	=8	=8	=8	=8	=8	=8
4F\	.	1ryy	8f/L	4ff\	-te	2rg
.	.	.	8g/	.	.	.
4r	.	.	8a/	8r	.	.
.	.	.	8g/J	8cc\	nam	.
2r	.	.	4B-/	(16dd\LL	pri-	16bb-\LL
.	.	.	.	16cc\JJ)	.	16aa\
.	.	.	.	(16dd\LL	-or	16bb-\
.	.	.	.	16ee\JJ)	.	16ccc\JJ
.	.	.	4r	(16dd\LL	tu	16bb-\LL
.	.	.	.	16cc\JJ)	.	16aa\
.	.	.	.	(16dd\LL	a-	16bb-\
.	.	.	.	16ee\JJ)	.	16ccc\JJ
=9	=9	=9	=9	=9	=9	=9
0r	.	1ryy	8r	(16cc\LL	-ma-	16aa\LL
.	.	.	.	16b-\JJ)	.	16gg\
.	.	.	8f/	(16cc\LL	.	16aa\
.	.	.	.	16dd\JJ)	.	16bb-\JJ
!	!	!	!	!	!	!LO:LB:g=original
.	.	.	8a/L	8cc\	-sti	8aa\L
.	.	.	8f/J	8cc\	nam	16fff\L
.	.	.	.	.	.	16aa\JJ
.	.	.	8r	16dd\	pri-	16bb-\LL
.	.	.	.	16cc\	-or	16aa\
.	.	.	8B-/L	(16dd\LL	tu	16bb-\
.	.	.	.	16ee\JJ)	.	16ccc\JJ
.	.	.	8d/	(16dd\LL	a-	16bb-\LL
.	.	.	.	16cc\JJ)	.	16aa\
!	!	!	!	!LO:LB:g=original	!	!
.	.	.	8B-/J	16dd\LL	-ma-	16bb-\
.	.	.	.	16ee\JJ	.	16ddd\JJ
=10	=10	=10	=10	=10	=10	=10
.	.	1ryy	8r	16cc\LL	.	16aa\LL
.	.	.	.	16b-\	.	16gg\
.	.	.	8f/L	16cc\	.	16aa\
.	.	.	.	16dd\JJ	.	16bb-\JJ
.	.	.	8a/	16cc\LL	.	16aa\LL
.	.	.	.	16b-\	.	16gg\
.	.	.	8f/J	16cc\	.	16aa\
.	.	.	.	16dd\JJ	.	16bb-\JJ
!	!	!	!	!	!	!LO:TX:a:t=P:problem=mixed beam
.	.	.	8g/L	16b-\LL	.	8eee\L
.	.	.	.	16a\	.	.
.	.	.	8f/	16b-\	.	8ee/
.	.	.	.	16cc\JJ	.	.
.	.	.	8e/	16b-\LL	.	8gg/
.	.	.	.	16a\	.	.
.	.	.	8c/J	16b-\	.	8eee\J
.	.	.	.	16g\JJ	.	.
!	!	!	!LO:LB:g=original	!	!	!
=11	=11	=11	=11	=11	=11	=11
!LO:TX:a:t=P:problem=mixed beam	!	!	!	!	!	!
8F\L	.	1ryy	4f/	8a\	.	4fff\
8A\	.	.	.	16ff\LL	.	.
.	.	.	.	16gg\JJ	.	.
8c\	.	.	4r	8.ee\	.	4r
8C/J	.	.	.	.	.	.
.	.	.	.	16ee\	-sti	.
8F\L	.	.	2rg	4ff\	me	2rg
8G\	.	.	.	.	.	.
8A\	.	.	.	8r	.	.
8F\J	.	.	.	8ff\	O	.
=12	=12	=12	=12	=12	=12	=12
8C/L	.	1ryy	2rg	8ee\	De-	2rg
8D/	.	.	.	8ee\	-us	.
8E/	.	.	.	8ee\	a-	.
8C/J	.	.	.	16gg\LL	-mo	.
.	.	.	.	16ee\JJ	.	.
8F\L	.	.	4r	4ff\	te	4r
8G\	.	.	.	.	.	.
8A\	.	.	8r	4r	.	8r
8F\J	.	.	8a/	.	.	8ccc\
=13	=13	=13	=13	=13	=13	=13
*	*	*	*^	*	*	*
8r	.	1ryy	16b-/LL	8ryy	00r	.	16ddd\LL
.	.	.	16a/	.	.	.	16ccc\
8B-\L	.	.	16b-/	8g\	.	.	16ddd\
.	.	.	16cc/JJ	.	.	.	16eee--X\JJ
8d\	.	.	16b-/LL	2ryy	.	.	16ddd\LL
.	.	.	16a/	.	.	.	16ccc\
8B-\J	.	.	16b-/	.	.	.	16ddd\
.	.	.	16dd/JJ	.	.	.	16bbb-\JJ
8r	.	.	16a/LL	.	.	.	16ccc\LL
.	.	.	16g/	.	.	.	16bb-\
8F\L	.	.	16a/	.	.	.	16ccc\
.	.	.	16b-/JJ	.	.	.	16ddd\JJ
8A\	.	.	16a/LL	4ryy	.	.	16ccc\LL
.	.	.	16g/	.	.	.	16bb-\
8F\J	.	.	16a/	.	.	.	16ccc\
.	.	.	16cc/JJ	.	.	.	16aaa\JJ
*	*	*	*v	*v	*	*	*
!LO:LB:g=original	!	!	!	!	!	!LO:LB:g=original
=14	=14	=14	=14	=14	=14	=14
8G\L	.	1ryy	8b-\L	.	.	8bbb-\L
8F\	.	.	8dd\	.	.	8bbb-\
8E\	.	.	8cc\	.	.	8bbb-\
8D\J	.	.	8ee\J	.	.	8bbb-\J
!LO:TX:a:t=P:problem=mixed beam	!	!	!	!	!	!
!LO:TX:a:t=f	!	!	!	!	!	!
8F\L	.	.	8ff\L	.	.	8aaa\L
8B-\	.	.	8dd\J	.	.	16ggg\L
.	.	.	.	.	.	16fff\JJ
8c\	.	.	8.g/L	.	.	8.eee\L
8C/J	.	.	.	.	.	.
.	.	.	16g/Jk	.	.	16eee\Jk
=15	=15	=15	=15	=15	=15	=15
8F\L	.	1ryy	4a/	.	.	4fff\
8G\	.	.	.	.	.	.
8A\	.	.	8r	.	.	8r
8F\J	.	.	8a/	.	.	8ccc\
8r	.	.	16dd\LL	.	.	16bb-\LL
.	.	.	16cc\	.	.	16aa\
8B-\L	.	.	16dd\	.	.	16bb-\
.	.	.	16ee-X\JJ	.	.	16ccc\JJ
8d\	.	.	16dd\LL	.	.	16bb-\LL
.	.	.	16cc\	.	.	16aa\
8B-\J	.	.	16dd\	.	.	16bb-\
.	.	.	16bb-\JJ	.	.	16ddd\JJ
!	!	!	!LO:LB:g=original	!	!	!
=16	=16	=16	=16	=16	=16	=16
8r	.	1ryy	16cc\LL	.	.	16aa\LL
.	.	.	16b-\	.	.	16gg\
8F\L	.	.	16cc\	.	.	16aa\
.	.	.	16dd\JJ	.	.	16bb-\JJ
8A\	.	.	16cc\LL	.	.	16aa\LL
.	.	.	16b-\	.	.	16gg\
8F\J	.	.	16cc\	.	.	16aa\
.	.	.	16aa\JJ	.	.	16ccc\JJ
!LO:TX:a:t=P:problem=mixed beam	!	!	!	!	!	!
8F\L	.	.	4a/	.	.	8fff\L
8BB-/	.	.	.	.	.	16ggg\L
.	.	.	.	.	.	16aaa\JJ
8C/	.	.	8.g/L	.	.	8.eee\L
8CC/J	.	.	.	.	.	.
.	.	.	16g/Jk	.	.	16eee\Jk
=17	=17	=17	=17	=17	=17	=17
8F\L	.	1ryy	4a/	8r	.	4fff\
8F\	.	.	.	8ff\	en	.
8A\	.	.	4r	16ff\	li-	4r
.	.	.	.	16cc\	-ber-	.
!	!	!	!	!LO:LB:g=original	!	!
8G\J	.	.	.	16b-\	-ta-	.
.	.	.	.	16dd\	-te	.
8F\L	.	.	2rg	16cc\	pri-	2rg
.	.	.	.	16f/	.	.
8G\	.	.	.	16f/	-vo	.
.	.	.	.	16f/	me	.
8A\	.	.	.	8r	.	.
8F\J	.	.	.	8cc\	Ut	.
=18	=18	=18	=18	=18	=18	=18
8G\L	.	1ryy	00r	8b-\	ſpon-	00r
8F\	6	.	.	8dd\	-te	.
8E\	6	.	.	8.cc\	vin-	.
8C\J	4	.	.	.	.	.
.	.	.	.	16b-\	-ctus	.
8F\L	.	.	.	8a\	ſe-	.
8G\	.	.	.	8f/	-guar	.
8A\	.	.	.	8r	.	.
8F\J	.	.	.	8ff\	ut	.
=19	=19	=19	=19	=19	=19	=19
!LO:TX:a:t=P:problem=mixed beam	!	!	!	!	!	!
8C\L	.	1ryy	.	8ee\	ſpon-	.
8F\	.	.	.	16dd\LL	-te	.
.	.	.	.	16cc\JJ	.	.
8G\	#	.	.	8.b#X\	vin-	.
8GG/J	.	.	.	.	.	.
.	.	.	.	16b#\	-ctus	.
!LO:LB:g=original	!	!	!	!	!	!
8C/L	.	.	.	(16cc\LL	ſe-	.
.	.	.	.	16b#\JJ)	.	.
8D/	.	.	.	(16cc\LL	-guar	.
.	.	.	.	16dd\JJ)	.	.
8E/	.	.	.	8cc\	te	.
8F/J	.	.	.	8cc\	ut	.
!	!	!	!	!LO:SIC:t=znaczek przypominający custos po kresce taktowej:v	!	!
!	!	!	!	!LO:TX:a:t=P:problem=wszystkie custos użyte jako łamanie pięciolinii	!	!
!	!	!	!	!LO:LB:g=original	!	!
=20	=20	=20	=20	=20	=20	=20
8G\L	.	1ryy	.	8.b-\	ſpon-	.
8F\	6	.	.	.	.	.
.	6	.	.	16dd\	-te	.
8E\	4	.	.	8.cc\	vin-	.
8D\J	.	.	.	.	.	.
.	.	.	.	16b-\	-ctus	.
8F\L	.	.	.	8a\	se-	.
8G\	.	.	.	8f/	.	.
8A\	.	.	.	16f/LL	.	.
.	.	.	.	16g/	.	.
8F\J	.	.	.	16a/	.	.
.	.	.	.	16b-/JJ	.	.
=21	=21	=21	=21	=21	=21	=21
8C/L	.	1ryy	.	8ee\	.	.
8E/J	.	.	.	16gg\LL	.	.
.	.	.	.	16ee\JJ	.	.
8F\L	.	.	.	8ff\	.	.
16A\L	.	.	.	16ff\	.	.
16G\JJ	.	.	.	16cc\	.	.
!LO:TX:a:t=P:problem=mixed beam	!	!	!	!	!	!
8F\L	.	.	.	8a\	.	.
8B-\	.	.	.	16g/LL	.	.
.	.	.	.	16f/JJ	.	.
8c\	.	.	.	8.e/	.	.
8C/J	.	.	.	.	.	.
!LO:TX:a:t=P:problem=pojedyncza kreska taktowa	!LO:TX:b:t=Finis	!	!	!	!	!LO:TX:b:t=Finis
.	.	.	.	16e/	-guar	.
=22||	=22||	=22||	=22||;	=22||	=22||	=22||;;
*	*	*	*>B	*	*	*>B
8F\L	.	1ryy	2rg	4f/	te	4r
8G\	.	.	.	.	.	.
8A\	.	.	.	4r	.	16r
.	.	.	.	.	.	16ccc\LL
8F\J	.	.	.	.	.	16ddd\
.	.	.	.	.	.	16eee\JJ
!	!	!	!LO:TX:a:t=P:problem=mixed beam	!LO:TX:b:t=Finis	!	!
8F\L	.	.	8a/L	2r;;	.	8fff\L
8D\	.	.	8g/	.	.	8eee\J
!	!	!	!	!	!	!LO:LB:g=original
8E\	.	.	8g/	.	.	8eee\L
8C\J	.	.	8ee\J	.	.	16ggg\L
!	!	!	!	!LO:TX:a:t=P:problem=podwójna kreska taktowa	!	!
.	.	.	.	.	.	16eee\JJ
=23	=23	=23	=23	=23	=23	=23
*	*	*	*	*>B	*	*
4F\	.	1ryy	8ff\L	00r	.	4fff\
.	.	.	8cc\	.	.	.
4r	.	.	8a\	.	.	4r
.	.	.	8f\J	.	.	.
8F\L	.	.	8ff\L	.	.	8aaa\L
8C\	.	.	8ee\J	.	.	8ggg\
8F\	.	.	8ee\L	.	.	8ggg\
8C\J	.	.	16gg\L	.	.	8eee\J
.	.	.	16ee\JJ	.	.	.
=24	=24	=24	=24	=24	=24	=24
4F\	.	1ryy	4ff\	.	.	8fff\L
.	.	.	.	.	.	8ccc\
4r	.	.	4r	.	.	8aa\
.	.	.	.	.	.	8ff\J
8r	.	.	16b-/LL	.	.	16ddd\LL
.	.	.	16a/	.	.	16ccc\
8B-\L	.	.	16b-/	.	.	16ddd\
.	.	.	16cc/JJ	.	.	16eee--X\JJ
8d\	.	.	16b-/LL	.	.	16ddd\LL
.	.	.	16a/	.	.	16ccc\
8B-\J	.	.	16b-/	.	.	16ddd\
.	.	.	16dd/JJ	.	.	16bbb-\JJ
=25	=25	=25	=25	=25	=25	=25
8r	.	1ryy	16a/LL	.	.	16ccc\LL
.	.	.	16g/	.	.	16bb-\
8F\L	.	.	16a/	.	.	16ccc\
.	.	.	16b-/JJ	.	.	16ddd\JJ
8A\	.	.	16a/LL	.	.	16ccc\LL
.	.	.	16g/	.	.	16bb-\
8F\J	.	.	16a/	.	.	16ccc\
.	.	.	16cc/JJ	.	.	16aaa\JJ
!LO:LB:g=original	!	!	!LO:LB:g=original	!	!	!
8G\L	.	.	8b-\L	.	.	8bb-\L
8F\	.	.	8dd\	.	.	8ccc\
8E\	.	.	8b-\	.	.	8bb-\
8D\J	.	.	8ee\J	.	.	8ccc\J
=26	=26	=26	=26	=26	=26	=26
!LO:TX:a:t=P:problem=mixed beam	!	!	!	!	!	!
8F\L	.	1ryy	8ff\L	.	.	8aaa\L
8B-\	.	.	8dd\J	.	.	16ggg\L
.	.	.	.	.	.	16fff\JJ
8c\	.	.	8.g/L	.	.	8.eee\L
8C/J	.	.	.	.	.	.
.	.	.	16g/Jk	.	.	16eee\Jk
8F\L	.	.	4a/	.	.	4fff\
8G\	.	.	.	.	.	.
8A\	.	.	8r	.	.	8r
8F\J	.	.	8a/	.	.	8ccc\
!	!	!	!	!	!	!LO:LB:g=original
=27	=27	=27	=27	=27	=27	=27
8r	.	1ryy	16dd\LL	1rcc	.	16bb-\LL
.	.	.	16cc\	.	.	16aa\
8B-\L	.	.	16dd\	.	.	16bb-\
.	.	.	16ee-X\JJ	.	.	16ccc\JJ
8d\	.	.	16dd\LL	.	.	16bb-\LL
.	.	.	16cc\	.	.	16aa\
8B-\J	.	.	16dd\	.	.	16bb-\
.	.	.	16bb-\JJ	.	.	16ddd\JJ
8r	.	.	16cc\LL	.	.	16aa\LL
.	.	.	16b-\	.	.	16gg\
8E\L	.	.	16cc\	.	.	16aa\
.	.	.	16dd\JJ	.	.	16bb-\JJ
8G\	.	.	16cc\LL	.	.	16aa\LL
.	.	.	16b-\	.	.	16gg\
8E\J	.	.	16cc\	.	.	16aa\
.	.	.	16aa\JJ	.	.	16ccc\JJ
=28	=28	=28	=28	=28-	=28	=28
!LO:TX:a:t=P:problem=mixed beam	!	!	!	!	!	!
8F\L	.	1ryy	8a/L	2rf	.	8fff\L
8BB-/	.	.	8.g/	.	.	16ggg\L
.	.	.	.	.	.	16aaa\JJ
8C/	.	.	.	.	.	8.eee\L
.	.	.	16g/Jk	.	.	.
8CC/J	.	.	4a/	.	.	.
.	.	.	.	.	.	16eee\Jk
4FF/	.	.	.	4r	.	4fff\
.	.	.	8ryy	.	.	.
!LO:TX:b:t=Finis	!	!	!	!	!	!
4r	.	.	4r	8r	.	4r
!LO:TX:a:t=P:problem=podwójna kreska taktowa	!	!	!LO:TX:a:t=P:problem=podwójna ozdobna kreska taktowa	!	!	!
.	.	.	.	8g/	Nil	.
!	!	!	!	!LO:LB:g=original	!	!
=29;;	=29	=29	=29	=29	=29	=29
*>B	*	*	*	*	*	*
4r	.	1ryy	00r	8cc\	ſu-	00r
.	.	.	.	8cc\	-ge-	.
8r	.	.	.	8cc\	-rat	.
8GG/	.	.	.	8dd\	me-	.
8C/L	.	.	.	16ee\	-mo-	.
.	.	.	.	16dd\	-ri-	.
8C/	.	.	.	8cc\	-a	.
8C/	.	.	.	8r	.	.
8D/J	.	.	.	8r	.	.
=30	=30	=30	=30	=30	=30	=30
8E\L	.	1ryy	.	4r	.	.
16C\L	.	.	.	.	.	.
16D\JJ	.	.	.	.	.	.
8E\L	.	.	.	8r	.	.
8C\J	.	.	.	8gg\	ni-	.
4C\	.	.	.	8dd\	-si	.
.	.	.	.	16dd\LL	de	.
.	.	.	.	16ee\JJ	.	.
4D\	.	.	.	16ff\LL	tu-	.
.	.	.	.	16ee\JJ	.	.
.	.	.	.	16dd\LL	-a	.
.	.	.	.	16cc\JJ	.	.
!LO:LB:g=original	!	!	!	!	!	!
=31	=31	=31	=31	=31	=31	=31
8G\L	.	1ryy	.	16cc#X\	glo-	.
.	.	.	.	16a\	-ri-	.
8A\	.	.	.	8g\	-a	.
8B-\	.	.	.	8r	.	.
8G\J	.	.	.	8gg\	nil	.
8D/L	.	.	.	8ff\	in-	.
8C/	.	.	.	8ff\	-tel-	.
8BB-/	.	.	.	16ff\LL	-lec-	.
.	.	.	.	16aa\JJ	.	.
8GG/J	.	.	.	16gg\LL	-tus	.
.	.	.	.	16ff\JJ	.	.
!	!	!	!	!LO:SIC:t=znaczek przypominający custos po kresce taktowej:v	!	!
!	!	!	!	!LO:LB:g=original	!	!
=32	=32	=32	=32	=32	=32	=32
8C/L	.	1ryy	.	16ee\	sa-	.
.	.	.	.	16dd\	-pi-	.
8D/	.	.	.	8cc\	-at	.
8E/	.	.	.	8r	.	.
*	*	*	*	*Xtuplet	*	*
8C/J	.	.	.	24gg\LL	prae-	.
.	.	.	.	24ff\	.	.
.	.	.	.	24gg\JJ	.	.
!LO:TX:a:t=P:problem=mixed beam	!	!	!	!	!	!
8c\L	.	.	.	8ee\	-ter-	.
8F\	.	.	.	16dd\LL	-quam	.
.	.	.	.	16cc\JJ	.	.
8G\	.	.	.	8.b-\	ut	.
8GG/J	.	.	.	.	.	.
.	.	.	.	16b-\	te	.
=33	=33	=33	=33	=33	=33	=33
8C/L	.	1ryy	00r	16cc\	Ca-	00r
.	.	.	.	16cc\	-pi-	.
8D/	.	.	.	8cc\	-at	.
8E/	.	.	.	8r	.	.
8C/J	.	.	.	16g/	nil	.
.	.	.	.	16g/	in-	.
8F\L	.	.	.	8a\	-tel-	.
8G\	.	.	.	8a\	-le-	.
8A\	.	.	.	16a\LL	-ctus	.
.	.	.	.	16cc\JJ	.	.
8F\J	.	.	.	16b-\LL	.	.
.	.	.	.	16a\JJ	.	.
=34	=34	=34	=34	=34	=34	=34
8C/L	.	1ryy	.	8g/	ſa-	.
8D/	.	.	.	16g/	-pi-	.
.	.	.	.	16g/	-at	.
8E/	.	.	.	8r	.	.
*	*	*	*	*	*ij	*
8C/J	.	.	.	16g/	nil	.
.	.	.	.	16g/	in-	.
!	!	!	!	!LO:LB:g=original	!	!
8F\L	.	.	.	8a\	-tel-	.
8G\	.	.	.	8a\	-le-	.
8A\	.	.	.	(16a\LL	-ctus	.
.	.	.	.	16cc\JJ)	.	.
8F\J	.	.	.	(16b-\LL	.	.
.	.	.	.	16a\JJ)	.	.
=35	=35	=35	=35	=35	=35	=35
8C/L	.	1ryy	.	16g/	ſa-	.
.	.	.	.	16g/	-pi-	.
8D/	.	.	.	8g/	-at	.
*	*	*	*	*	*Xij	*
8E/	.	.	.	8r	.	.
8C/J	.	.	.	8cc\	prae-	.
8BB-/L	.	.	.	8dd\	-ter-	.
8AA/	.	.	.	8cc\	-qua(m)	.
8BB-/	.	.	.	8dd\	ut	.
8GG/J	.	.	.	8ee\	te	.
=36	=36	=36	=36	=36	=36	=36
4FF/	.	1ryy	.	16ff\LL	ca-	.
.	.	.	.	16ee\	.	.
.	.	.	.	16dd\	.	.
.	.	.	.	16cc\JJ	.	.
8BB-/L	.	.	.	16dd\LL	.	.
.	.	.	.	16cc\	.	.
8C/J	.	.	.	16b-\	.	.
.	.	.	.	16a\JJ	.	.
!LO:TX:a:t=P:problem=mixed beam	!	!	!	!	!	!
8C/L	.	.	.	8a\L	.	.
8c\J	.	.	.	16g\L	.	.
.	.	.	.	16f\JJ	-pi-	.
!LO:LB:g=original	!	!	!	!	!	!
4F\	.	.	.	8f/	-at	.
.	.	.	.	8ff\	O	.
=37	=37	=37	=37	=37	=37	=37
8C/L	.	1ryy	2rg	8ee\	De-	2rg
8D/	.	.	.	8ee\	-us	.
*	*	*	*	*custos	*	*
!	!	!	!	!LO:LB:g=original	!	!
8E/	.	.	.	16ee\	a-	.
.	.	.	.	16ff\	.	.
8C/J	.	.	.	16gg\	-mo-	.
.	.	.	.	16ee\	.	.
8F\L	.	.	4r	4ff\	-te	4r
8G\	.	.	.	.	.	.
8A\	.	.	8r	4r	.	8r
!LO:TX:b:B:t=Da Capo uſ q(ue) ad \nSignum Finis	!	!	!LO:TX:b:B:t=Da Capo uſq(ue) \nad Signum \nFinis	!LO:TX:b:B:t=Da capo uſ q(ue)  ad Signum Finis	!	!LO:TX:b:B:t=Da Capo uſ q(ue) ad Signum \nFinis
8F\J	.	.	8ryy	.	.	8ryy
==	==	==	==	==	==	==
*-	*-	*-	*-	*-	*-	*-
!!!system-decoration: s1,s2,[g1]s5
!!!ENC: Marta Lawrence
!!!END: 2020-11-16
!!!ENC: Berenika Jozajtis
!!!END: 2020-06-11
